icons-common/trash.svg

<svg height="1em" width="auto" viewBox="0 0 105 105" fill="currentColor" xmlns="http://www.w3.org/2000/svg">
    <path d="M61.1822 25.35C53.7121 19.166 52.236 19.4273 44.8107 25.4371C41.9927 27.6581 37.9221 24.1742 39.7561 21.2128C46.2868 9.10614 59.7955 9.10614 66.371 21.2128C68.2049 24.3919 63.9555 27.7017 61.1822 25.35Z"
          />
    <path d="M27.4549 24.6529C44.4974 23.9126 61.5845 23.9126 78.627 24.6529C80.7741 24.7836 82.4291 26.5691 82.3397 28.6594C82.2502 30.6192 80.5952 32.1434 78.627 32.274C70.0834 32.7095 61.5845 32.7531 53.0409 32.7966C44.4974 32.7531 35.9985 32.7095 27.4549 32.274C25.3078 32.1434 23.6528 30.3579 23.7422 28.2675C23.8317 26.3078 25.4867 24.7836 27.4549 24.6529Z"
          />
    <path d="M61.54 92.111H44.5423C32.957 92.111 23.5635 82.9221 23.5635 71.6864V45.6439C23.5635 34.3647 33.0017 25.1758 44.5423 25.1758H61.54C73.1253 25.1758 82.5188 34.3647 82.5188 45.6004V71.6428C82.5188 82.9221 73.0805 92.0674 61.54 92.0674V92.111ZM44.5423 32.7969C37.2959 32.7969 31.3914 38.5454 31.3914 45.6004V71.6428C31.3914 78.6978 37.2959 84.4463 44.5423 84.4463H61.54C68.7864 84.4463 74.6909 78.6978 74.6909 71.6428V45.6439C74.6909 38.589 68.7864 32.8405 61.54 32.8405H44.5423V32.7969Z"
          />
    <path d="M57.5141 74.5608C57.0668 69.2478 57.0221 63.9348 56.9326 58.6217C56.9773 53.3087 57.0221 47.9957 57.4694 42.6827C57.6483 40.5923 59.5717 39.0246 61.7188 39.1988C63.6422 39.373 65.1631 40.8536 65.2973 42.6827C65.7446 47.9957 65.7893 53.3087 65.8788 58.6217C65.8341 63.9348 65.7893 69.2478 65.342 74.5608C65.1631 76.6511 63.2397 78.2189 61.0926 78.0447C59.1692 77.8705 57.6483 76.3898 57.5141 74.5608Z"
          />
    <path d="M40.7846 74.5608C40.3373 69.2478 40.2926 63.9348 40.2031 58.6217C40.2479 53.3087 40.2926 47.9957 40.7399 42.6827C40.9188 40.5923 42.8422 39.0246 44.9893 39.1988C46.9128 39.373 48.4336 40.8536 48.5678 42.6827C49.0151 47.9957 49.0598 53.3087 49.1493 58.6217C49.1046 63.9348 49.0598 69.2478 48.6125 74.5608C48.4336 76.6511 46.5102 78.2189 44.3631 78.0447C42.4397 77.8705 40.9188 76.3898 40.7846 74.5608Z"
          />
</svg>

<svg xmlns="http://www.w3.org/2000/svg" width="auto" height="1em" fill="currentColor" viewBox="0 0 105 105">
    <path d="M61.182 25.35c-7.47-6.184-8.946-5.923-16.371.087-2.818 2.221-6.889-1.263-5.055-4.224 6.53-12.107 20.04-12.107 26.615 0 1.834 3.179-2.415 6.489-5.189 4.137"/>
    <path d="M27.455 24.653a590 590 0 0 1 51.172 0c2.147.13 3.802 1.916 3.713 4.006-.09 1.96-1.745 3.484-3.713 3.615-8.544.435-17.042.48-25.586.523-8.544-.044-17.042-.087-25.586-.523-2.147-.13-3.802-1.916-3.713-4.007.09-1.96 1.745-3.483 3.713-3.614"/>
    <path d="M61.54 92.111H44.542c-11.585 0-20.978-9.189-20.978-20.425V45.644c0-11.28 9.438-20.468 20.978-20.468H61.54c11.585 0 20.979 9.189 20.979 20.424v26.043c0 11.28-9.439 20.424-20.979 20.424zM44.542 32.797c-7.246 0-13.15 5.748-13.15 12.803v26.043c0 7.055 5.904 12.803 13.15 12.803H61.54c7.246 0 13.15-5.748 13.15-12.803v-26c0-7.054-5.904-12.803-13.15-12.803H44.542z"/>
    <path d="M57.514 74.56c-.447-5.312-.492-10.625-.581-15.938.044-5.313.09-10.626.536-15.94.18-2.09 2.103-3.657 4.25-3.483 1.923.174 3.444 1.655 3.578 3.484.448 5.313.492 10.626.582 15.939-.045 5.313-.09 10.626-.537 15.939-.179 2.09-2.102 3.658-4.25 3.484-1.923-.174-3.444-1.655-3.578-3.484m-16.729-.001c-.448-5.312-.492-10.625-.582-15.938.045-5.313.09-10.626.537-15.94.179-2.09 2.102-3.657 4.25-3.483 1.923.174 3.444 1.655 3.578 3.484.447 5.313.492 10.626.581 15.939-.044 5.313-.09 10.626-.537 15.939-.178 2.09-2.102 3.658-4.249 3.484-1.923-.174-3.444-1.655-3.578-3.484"/>
</svg>
